icons/solid/shield-exclamation.svg

<svg width="24" height="24" viewBox="0 0 24 24" fill="none" xmlns="http://www.w3.org/2000/svg">
<path fill-rule="evenodd" clip-rule="evenodd" d="M12 1.93201L21 5.30701V10C21 14.1181 19.3807 17.1128 17.4654 19.0737C16.5133 20.0485 15.4878 20.7688 14.5497 21.2494C13.6372 21.7169 12.7236 22 12 22C11.2764 22 10.3628 21.7169 9.45027 21.2494C8.51225 20.7688 7.48671 20.0485 6.53462 19.0737C4.61932 17.1128 3 14.1181 3 10V5.30701L12 1.93201ZM12 7C12.5523 7 13 7.44772 13 8V12C13 12.5523 12.5523 13 12 13C11.4477 13 11 12.5523 11 12V8C11 7.44772 11.4477 7 12 7ZM13 16C13 16.5523 12.5523 17 12 17C11.4477 17 11 16.5523 11 16C11 15.4477 11.4477 15 12 15C12.5523 15 13 15.4477 13 16Z" fill="currentColor"/>
</svg>

<svg width="24" height="24" fill="none" xmlns="http://www.w3.org/2000/svg"><path fill-rule="evenodd" clip-rule="evenodd" d="M12 1.932l9 3.375V10c0 4.118-1.62 7.113-3.535 9.074a11.407 11.407 0 01-2.915 2.175c-.913.468-1.826.751-2.55.751-.724 0-1.637-.283-2.55-.75-.938-.481-1.963-1.201-2.915-2.176C4.619 17.113 3 14.118 3 10V5.307l9-3.375zM12 7a1 1 0 011 1v4a1 1 0 11-2 0V8a1 1 0 011-1zm1 9a1 1 0 11-2 0 1 1 0 012 0z" fill="currentColor"/></svg>
